X:497
%%etbk:tnset id:275,pos:4,rep:2x,ant:Alle
%%etbk:wsite http://thesession.org/tunes/177
%%etbk:video src:ytube,cde:9uWMPaQj7NY,desc:second tune
%%etbk:color #ffccbf
%%etbk:pldat 2015-09-07T19:01,2015-09-06T14:54,2015-07-31T18:01,2015-07-30T18:51,2015-02-22T16:12,2015-02-21T17:22,2015-02-19T19:58,2015-02-18T17:21,2015-02-16T18:31,2015-02-13T18:33,2015-02-02T18:20,2015-01-26T18:50,2015-01-24T14:13,2015-01-21T16:53,2015-01-14T17:31,2015-01-13T16:26,2015-01-10T14:46,2015-01-08T18:25,2015-01-07T15:14,2015-01-05T18:00,2014-12-28T13:58,2014-12-17T18:36,2014-12-09T16:25,2014-11-30T15:16,2014-11-19T15:17,2014-11-13T18:35,2014-11-12T18:49,2014-10-16T18:44,2014-10-14T18:09,2014-10-13T17:55,2014-10-10T15:30,2014-09-18T18:31,2014-09-15T18:02,2014-09-13T13:10,2014-08-14T18:31,2014-08-13T19:15,2014-08-12T18:25,2014-08-11T18:39,2014-08-10T13:28,2014-08-09T17:27,2014-08-06T19:06,2014-08-05T19:11,2014-08-04T18:47,2014-08-03T16:09,2014-08-02T15:58,2014-07-30T19:40,2014-07-29T18:47,2014-07-28T19:03,2014-07-26T15:24,2014-07-24T19:26,2014-07-22T18:43,2014-07-20T14:58,2014-07-18T09:42,2014-07-14T17:12,2014-07-04T11:11,2014-07-02T16:54,2014-06-30T11:15,2014-06-20T15:37,2014-06-19T18:31,2014-06-17T18:23,2014-06-15T13:29,2014-06-12T18:45,2014-06-11T15:51,2014-06-10T19:36,2014-06-09T15:02,2014-06-07T16:24,2014-06-04T16:31,2014-06-03T16:31,2014-06-02T18:42,2014-05-31T17:03,2014-05-28T10:06,2014-05-23T16:11,2014-05-20T15:49,2014-05-14T18:53,2014-05-12T18:18,2014-05-07T18:28,2014-05-05T19:40,2014-04-18T10:56,2014-04-12T11:16,2014-04-09T16:43,2014-04-07T18:39,2014-04-06T10:43,2014-04-03T18:52,2014-04-01T17:07,2014-03-26T16:04,2014-03-23T15:18,2014-03-19T19:27,2014-03-13T18:25,2014-03-06T19:14,2014-03-05T18:47,2014-03-04T18:46,2014-03-03T18:13,2014-03-02T15:03,2014-02-26T18:10,2014-02-25T19:04,2014-02-24T18:36,2014-02-20T18:13,2014-02-15T17:28,2014-02-12T18:24,2014-02-07T16:57,2014-01-30T17:56,2014-01-29T15:54,2014-01-28T16:33,2014-01-27T18:27,2014-01-26T15:18,2014-01-21T18:10,2014-01-19T14:45,2014-01-18T16:05,2014-01-17T18:29,2014-01-16T18:51,2014-01-15T17:41,2014-01-14T18:11,2014-01-13T18:35,2014-01-12T14:12,2014-01-09T18:40,2014-01-08T16:39,2014-01-07T17:16,2014-01-06T18:00,2014-01-03T15:27,2014-01-02T10:06,2013-12-29T13:06,2013-12-28T13:17,2013-12-27T15:59,2013-12-26T12:44,2013-12-22T16:17,2013-12-21T16:20,2013-12-19T19:37,2013-12-18T16:20,2013-12-17T15:31,2013-12-16T18:25,2013-12-15T16:37,2013-12-11T16:37,2013-12-06T16:25,2013-12-03T18:40,2013-11-25T19:28,2013-11-23T16:14,2013-11-21T18:30,2013-11-17T15:52,2013-11-13T17:08,2013-11-12T18:06,2013-11-09T16:29,2013-11-09T15:11,2013-11-07T15:32,2013-11-06T17:08,2013-10-05T16:06,2013-10-04T16:42,2013-09-29T15:41,2013-09-27T13:53
T: Sean Sa Ceo
Z: Piano Box Version by Martin Fleischmann
H: Created 2013-09-08 /  Last Modified 2014-05-20
R: reel
M: 4/4
L: 1/8
K: Amix
|:"A"!4!e2!3!d!5!g !4!e!1!ABd | !4!e2Ae "G"!3!d!1!GBd | "A"!4!e2dg e!1!A!2!cA | "G"!2!B2!5!g!3!d !2!B!1!G!2!B!3!d:|:
"A"!2!cAAA !3!cABd | !3!cAAA !4!d!1!GBd | !3!cAAA !5!e!1!AcA | "G"!2!B2!5!g!3!d !2!B!1!G!2!B!3!d|
"A"!2!cAAA !3!cABd| !3!cAAA d!1!G !2!3(Bc!1!d) | !5!af!4!ge !3!fde!1!d| "G"!2!B2!5!g!3!d !2!B!1!G!2!B!5!g|
|:"A"!4!fedf !3!eAB!3!d | !4!e3!5!g "G"!3!d!1!G!2!B!5!g | "A"!4!fedf !3!e!1!A!2!cA|1 "G"!2!B2!5!gd !2!BGB!5!g:|2 "G"!2!B2!5!gd !2!BGB!3!d:|


